X:71
T:Garden Gnome, The
M:6/8
C:© Paul Gitlitz 2009
R:jig
K:D
"D"edA edA|FAd edA|edA FAd|"A"GAc egf|!
"D"edA edA|FAd edA|"D"FAd "A"GAc|"A"efe "D"d3:|!
|:"D"adg fed|"A"cde A2G|"D"FAd edA|"A"GAc efg|!
"D"adg fed|"A"cde A2G|"D"FAd "A"GAc|"A"efe "D"d3:|]
